X: 1
T: Homeward Bound
S: Barbara McOwen
B: BSFC Session Tune Book 2016 p.39
N: Cape Breton version of the old Irish tune
B: Ryan/Cole
M: C|
R: reel
K: D
A, !segno!|:\
"D"D2DE FEDF | "D"A/A/A AF ABde | "D7"faed "G"B2dB |1 "D"AFEF "A7"DB,A,B, :|2 "A7"AFEF "D"D/D/D D :|
|: g |\
"D"fdfg afdf | "Em"e/e/e ed "A7"efg2 | "D"fdfg afdf | "A"edef "D"d/d/d dg |
"D"fdfg afdf | "Em"e/e/e ed "A7"efg2 | "D"f/g/a ed "G"B2dB | "A"AFEF [1 "D"D/D/D D :|[2 "D"DB,A,"d.S."B, |]
